X:92
T: Good For the Tongue
M: C|
K: A
"A"ABcd eAAA| "D"fAgA "A"aAAA| "D"FAAA "A"EAAB| "Bm"cdBG "E"AGFE|
"A"ABcd eAAA| "D"fAgA "A"aAAA| "D"FAAA "A"EAAB|1"E"cdBG "A"A2E2:|2"E"cdBG "A"A2||
|:cd|"A"eAAA eAAA| "D"aAfA "A"eAAA|"D"aAfA "A"eAAB| "Bm"cdBG "E"AGFE|
"A"eAAA eAAA| "D"aAfA "A"eAAA|"D"aAfA "A"eAAB|1"E"cdBG "A"A2:|2"E"cdBG "A"A2 E2|]"D"a3fe2d2|"E7"c2B2"A"A4|]
W:                                                                                                                       Jeopardy ending if called for
